X:108
T:Sir William Noble's Quickstep
C:Alec Sim, 1930
Z:Nigel Gatherer
M:6/8
L:1/8
K:A
c/d/|e>cA A>ce|f>af e>cA|e>cA a>ec|d<BB B2 c/d/|
e>cA A>ce|a>ea f>ed|c<ae f>ed|c<eA A2::c/d/|e<cA e<cA|f<dA f<dA|
e<cA e<cA|d<BB B2 c/d/|e<cA e<cA|f<dA f<dA|c<ae f>ed|c<eA A2:|
<end>
<start>
